packages/tokens/icons/earth/size16Px.svg

<svg viewBox="0 0 16 16" fill="none" xmlns="http://www.w3.org/2000/svg" width="1em" height="1em"><circle cx="8" cy="8" r="6.5" stroke="currentColor"/><path d="M3.28659 4.12675C3.78034 4.50379 4.12695 5.04139 4.26659 5.64675C4.31469 6.15757 4.50913 6.64367 4.82659 7.04674C5.12659 7.34008 5.55326 7.40675 5.85326 7.71341C6.15326 8.02008 6.33326 8.51341 6.71992 8.55341C6.85873 8.54824 6.99244 8.49984 7.1024 8.41498C7.21236 8.33012 7.29307 8.21304 7.33326 8.08008C7.4195 7.79276 7.44001 7.48973 7.39326 7.19341C7.3363 6.96896 7.36481 6.73135 7.47326 6.52675C7.58677 6.40762 7.73705 6.33013 7.89992 6.30675C8.30944 6.15355 8.66363 5.88111 8.91676 5.5246C9.16988 5.16808 9.31031 4.74387 9.31992 4.30675C9.33328 4.24974 9.33328 4.19042 9.31992 4.13341C9.29557 4.05672 9.25124 3.98789 9.19149 3.934C9.13173 3.88011 9.05871 3.84309 8.97993 3.82675C8.51993 3.70008 7.77333 3.42667 7.5 3C7.22667 2.57333 7.40716 1.82517 7.47326 1.5" stroke="currentColor"/><path d="M9.13 10.7092L9.12262 10.6454L9.09937 10.5856C9.00357 10.339 8.84542 10.1217 8.64056 9.95486C8.53045 9.8509 8.44482 9.72368 8.38997 9.58241C8.33699 9.44598 8.31404 9.29986 8.32252 9.15399C8.34711 9.06022 8.40251 8.97714 8.48019 8.91836C8.56433 8.85469 8.66879 8.82391 8.77398 8.83177C9.12324 8.86042 9.30905 8.95541 9.48326 9.07526C9.52387 9.10319 9.57401 9.14128 9.63214 9.18543C9.79992 9.31286 10.0343 9.49086 10.2983 9.62147L10.3186 9.63156L10.3399 9.63975C10.4225 9.67168 10.499 9.71756 10.5661 9.77532C10.5899 9.80881 10.6079 9.84612 10.6194 9.88572C10.6328 9.93196 10.637 9.98038 10.6317 10.0282C10.5757 10.3558 10.4199 10.6583 10.1854 10.8941L10.1844 10.8951C9.85688 11.2264 9.55923 11.586 9.29492 11.9696L9.28256 11.9876L9.27181 12.0065C9.19138 12.1482 9.12394 12.2944 9.06626 12.4193L9.06267 12.4271C9.00114 12.5605 8.94971 12.6712 8.89181 12.7732L8.88649 12.7826L8.88157 12.7922C8.81157 12.9289 8.69339 13.0346 8.55016 13.0891C8.5336 13.0922 8.51641 13.09 8.50107 13.0827C8.49533 13.08 8.48998 13.0766 8.48511 13.0726C8.48429 13.04 8.48663 13.0074 8.49211 12.9751C8.5836 12.4856 8.73927 12.0104 8.95509 11.5616C9.1028 11.3036 9.16423 11.0049 9.13 10.7092Z" stroke="currentColor"/></svg>

<svg xmlns="http://www.w3.org/2000/svg" fill="none" viewBox="0 0 16 16" width="1em" height="1em"><circle cx="8" cy="8" r="6.5" stroke="currentColor"/><path stroke="currentColor" d="M3.287 4.127c.493.377.84.914.98 1.52.048.51.242.997.56 1.4.3.293.726.36 1.026.666.3.307.48.8.867.84a.667.667 0 0 0 .613-.473 2 2 0 0 0 .06-.887.933.933 0 0 1 .08-.666.733.733 0 0 1 .427-.22 2.187 2.187 0 0 0 1.42-2 .38.38 0 0 0 0-.174.453.453 0 0 0-.34-.306C8.52 3.7 7.773 3.427 7.5 3c-.273-.427-.093-1.175-.027-1.5m1.657 9.21-.007-.065-.024-.06a1.526 1.526 0 0 0-.458-.63 1.02 1.02 0 0 1-.318-.801.433.433 0 0 1 .451-.322c.35.028.535.123.71.243.04.028.09.066.148.11.168.128.402.306.666.436l.02.01.022.009a.798.798 0 0 1 .226.135.367.367 0 0 1 .066.253 1.61 1.61 0 0 1-.447.866v.001a7.92 7.92 0 0 0-.89 1.075l-.012.018-.011.019c-.08.141-.148.287-.206.412l-.003.008a4.652 4.652 0 0 1-.171.346l-.006.01-.004.01a.62.62 0 0 1-.332.296.08.08 0 0 1-.065-.016c0-.033.002-.066.007-.098.092-.49.247-.965.463-1.413.148-.258.21-.557.175-.853Z"/></svg>
